X:326
T:Nobody Knows You When You're Down & Out 
C:Noah Wall - Down Home Blues
N:mandolin: Tommy Norris - Transcribed by Philippe Colleu
R:bluegrass
L:1/8
Q:1/4=192
M:4/4
K:C
"96 bpm""C"z2 [e3G3]C [^d2^F2C2] | "G7"[d3F3B,3][cG] zA BA | "C"c3c/B/ AG Ad/z/ | 
"E7"ee e2 e2 BA | "A7"B^c z[ec] ze B[eA] | ze A3A A_B | "Dm"{^c}d2 dd/_B/ AG A=B | 
"A7"AG FE D^C CC | "Dm"^C/z/D DF F^G/z/ A[dA] | zA [dA][eA] ze e[AF] | "F"z[f2A2F2]f [fAF]f [fA][^fA^D] | 
"F#"z^D [^fAD]f [fAD]A [eg]A | "C"[eg]A [^fA]A [=f^G]A [e=G]A | "A7"z[e2^c2A2^C2][ec] [e3c3A3C3]=c/z/ | 
"D7"(3BAF (3F^FF (3AzB (3czd | (3ez^f (3fza (3zza za/g/ | "G7"^fA bz2b zd' | zd' d'2 d'[c'2g2]^d' | 
"C"[^d'^f][e'2g2]d' [d'f][e'2g2]e | "E7"e[e'^g] z[e'g] z[e'g] ze | "A7"[^d'e]e'2[d'e] [d'e]e'3 | 
(3azg' (3zz[g'a] (3zz[g'a] (3[g'a]z[g'a] | "Dm"[g'a]e f'A e'A d'2 | "A7"[c'e]e ae ge fe | 
"Dm"e2 dd2[d'2d2]G | A_B AG FE zC | "F"zD DE F2 DD | "F#"DE ^F2 DF/z/ GA | "C"cA dA eA ^dA | 
"A7"[e3^c3][a2c2][ac] [ac]e | "D7"^fe d2 cB AF | "G7"GF/z/ ED B,A, G,G, | "C"[DC]G, [EC]G, [FC]G, [^FC]G, | 
"G7"[G4B,4] [B4F4] | 


